X:1
T:Title
%%score { 1 | ( 2 3 ) }
L:1/8
Q:1/4=100
M:4/4
K:Bb
V:1 treble nm="Grand Piano"
V:2 bass 
V:3 bass 
V:1
 [DF]2 [_D=E]>[=DF] [_EG]2 [DF]2 | [Fd]2 [=E_d]>[F=d] [Ge]2 [Fd]2 | d2 c>=B c2 d>c | %3
w: B.~D.~Ackley * * * *|||
 [B,DB]2 [EA]>[EG] [DF]4 | [DF]2 [_D=E]>[=DF] [_EG]2 [DF]2 | d2 _d>=d e2 d2 | %6
w: |||
 c2 A>[CGB] [FAc]2 [CFA][A,F] | [B,=EG]2 [CEA]>[B,EG] F4 | F2 e>=B d2 c2 | %9
w: |||
 F2 [Fd]>[EA] [Dc]2 [DB]2 | B2 A>G B2 A>G | B2 [Gc]>[G_d] [^F=d]4 | [Fd]2 [Ge]>[Fd] [=Ed]2 [Ec]2 | %13
w: ||||
 c2 d>c c2 B2 | B2 AG F2 Bd | [Af]2 [EA]>[EA] [DB]4 |] %16
w: |||
V:2
 [B,,B,]2 [B,,B,]>[B,,B,] [B,,B,]2 [B,,B,]2 | [B,,B,]2 [B,,B,]>[B,,B,] [B,,B,]2 [B,,B,]2 | %2
 [F,B,F]2 [F,A,E]>[F,_A,D] [F,=A,E]2 [F,A,E]>[F,A,E] | z z/ F,/ [B,,G,]>[B,,A,] [B,,B,]4 | %4
 [B,,B,]2 [B,,B,]>[B,,B,] [B,,B,]2 [B,,B,]2 | [B,F]2 [B,=E]>[B,F] [B,G]2 [B,F]2 | %6
 [F,A,F]2 [F,CF]>F, F,2 F,F, | C,2 C,>C, [F,A,]4 | [F,A,]2 [F,CF]>[F,_A,F] [F,=A,F]2 [F,A,E]2 | %9
 [B,D]2 [B,,B,]>[B,,B,] [B,,F,]2 [B,,B,]2 | [G,DG]2 [G,CG]>[G,B,] [G,DG]2 [G,CG]>[G,B,] | %11
 [G,DG]2[K:bass] [E,E]>[E,G,] [D,A,]4 | [B,,B,]2 [B,,B,]>[B,,B,] [B,,B,]2 [B,,B,]2 | %13
 [F,A,E]2 [F,A,E]>[F,A,E] [^F,A,E]2 [G,B,D]2 | [=E,G,_D]2 [E,A,D][E,B,D] [F,B,=D]2 [F,DF][F,B,F] | %15
 [F,C]2 [F,C]>[F,C] [B,,B,]4 |] %16
V:3
 x8 | x8 | x8 | B,,2 z2 z4 | x8 | x8 | x8 | x8 | x8 | x8 | x8 | x2[K:bass] x6 | x8 | x8 | x8 | %15
 x8 |] %16

